X:1
T:The Blackbird
N:from the lilting of Sally Sloane
Z:Ian Hayden, 2017
L:1/8
M:4/4
K:C
G,|:E4 F2E2|D2>C2 DE F2|G2-GA G^F DB,|C2-CB, G,4|
|B,A, B,C D2B2|G2>A2 G^F DB,|[M:2/4]C2>B,2|[M:4/4]G,2G,2G,4:|
|:B2BA GA Bc|d2-dB c2dc|B2BA GA Bc|d4-d4|
|B2BA GA Bc|d2-dB c2dc|B2 AG ^FDD2-|[M:2/4]D2-C2|
|[M:4/4]D2-DE DCB,C|G3A G^FDB,|[M:2/4]C2>B,2|[M:4/4]G,2G,2G,4|]
